X: 1
T: Llanthony Abbey
M: 4/4
L: 1/8
R: hornpipe
K: Gmaj
|: (3ABc | 
d>Bd>g b>gd>B | c>Ac>f a>fc>A | B>G (3Bcd g>dB>G | A2 d2 D2 B>c |
d2 (3Bcd bgdB | c2 A>f a>f (3cBA | B2 g2 A>d (3fga | g2 G2 G2- :|
|: G>B | 
c>AB>c d>ef>g | a>gf>e d>cB>A | B>GA>B c>de>f | g2 d2 B2 G2 |
c2 (3ABc d>ef>g | a2 (3gfe d>c (3cBA | B2 g2 A2 f2 | g2 G2 G2- :|
